X:1185
T: Derrymore
T: R\'il an Doire Mh\'oir
S: B.Breathnach:"Ceol Rince na hEireann" IV/164
Z: B.Black
L: 1/8
M: 4/4
R: reel
K: D
F2 AF dFAF|DFAF GFEG|FDFA (3Bcd eg|fdec dBAG|
F2 AF dFAF|DFAF GFEG|FDFA (3Bcd eg|(3fga ec dcBA ||
a2 fg adfg|a2 fg afbf|a2 fg afbf|gfed cdef|
a2 fg adfg|a2 fg afbf|abaf gage|fgfe dBAG ||
